public/static/img/common/close_eye_white.svg

<svg xmlns="http://www.w3.org/2000/svg" width="16" height="16" viewBox="0 0 16 16" fill="none">
  <path d="M8.00008 3.99948C9.22591 3.9954 10.428 4.33733 11.4682 4.98596C12.5083 5.63459 13.3443 6.56359 13.8801 7.66615C13.4934 8.46269 12.9464 9.1708 12.2734 9.74615L13.2134 10.6861C14.1401 9.86615 14.8734 8.83948 15.3334 7.66615C14.1801 4.73948 11.3334 2.66615 8.00008 2.66615C7.15341 2.66615 6.34008 2.79948 5.57341 3.04615L6.67341 4.14615C7.10675 4.05948 7.54675 3.99948 8.00008 3.99948ZM7.28675 4.75948L8.66675 6.13948C9.04675 6.30615 9.35341 6.61281 9.52008 6.99281L10.9001 8.37281C10.9534 8.14615 10.9934 7.90615 10.9934 7.65948C11.0001 6.00615 9.65341 4.66615 8.00008 4.66615C7.75342 4.66615 7.52008 4.69948 7.28675 4.75948ZM1.34008 2.57948L3.12675 4.36615C2.02696 5.22692 1.17758 6.36634 0.666748 7.66615C1.82008 10.5928 4.66675 12.6661 8.00008 12.6661C9.01341 12.6661 9.98675 12.4728 10.8801 12.1195L13.1601 14.3995L14.1001 13.4595L2.28008 1.63281L1.34008 2.57948ZM6.34008 7.57948L8.08008 9.31948C8.05341 9.32615 8.02675 9.33281 8.00008 9.33281C7.55805 9.33281 7.13413 9.15722 6.82157 8.84466C6.50901 8.5321 6.33342 8.10817 6.33342 7.66615C6.33342 7.63281 6.34008 7.61281 6.34008 7.57948ZM4.07341 5.31281L5.24008 6.47948C5.08202 6.85516 5.00043 7.25857 5.00008 7.66615C5.00095 8.16216 5.1246 8.65025 5.36 9.08685C5.5954 9.52345 5.93522 9.89498 6.34914 10.1683C6.76307 10.4416 7.23822 10.6082 7.73219 10.6532C8.22616 10.6982 8.72359 10.6202 9.18008 10.4261L9.83341 11.0795C9.24675 11.2395 8.63341 11.3328 8.00008 11.3328C6.77426 11.3369 5.57217 10.995 4.532 10.3463C3.49184 9.6977 2.65583 8.76871 2.12008 7.66615C2.58675 6.71281 3.26675 5.92615 4.07341 5.31281Z" fill="#888"/>
</svg>

<svg xmlns="http://www.w3.org/2000/svg" width="16" height="16" fill="none"><path d="M8 4a6.513 6.513 0 0 1 5.88 3.666 6.432 6.432 0 0 1-1.607 2.08l.94.94a7.867 7.867 0 0 0 2.12-3.02c-1.153-2.927-4-5-7.333-5a7.9 7.9 0 0 0-2.427.38l1.1 1.1A6.739 6.739 0 0 1 8 4Zm-.713.76 1.38 1.38c.38.166.686.473.853.853l1.38 1.38c.053-.227.093-.467.093-.714A2.989 2.989 0 0 0 8 4.666c-.247 0-.48.033-.713.093ZM1.34 2.58l1.787 1.786c-1.1.86-1.95 2-2.46 3.3 1.153 2.927 4 5 7.333 5a7.82 7.82 0 0 0 2.88-.546l2.28 2.28.94-.94L2.28 1.633l-.94.946Zm5 5 1.74 1.74a.334.334 0 0 1-.08.013 1.667 1.667 0 0 1-1.667-1.667c0-.033.007-.053.007-.087ZM4.073 5.312 5.24 6.479a3.005 3.005 0 0 0 3.94 3.947l.653.653A6.95 6.95 0 0 1 8 11.333a6.513 6.513 0 0 1-5.88-3.667 6.601 6.601 0 0 1 1.953-2.353Z" fill="#888"/></svg>
